packages/tokens/icons/compass/size32Px.svg

<svg viewBox="0 0 32 32" fill="none" xmlns="http://www.w3.org/2000/svg" width="1em" height="1em"><path d="M16 2.69995V5.49995M16 26.5V29.3M2.69995 16H5.49995M26.5 16H29.3" stroke="currentColor" stroke-linecap="round"/><path d="M13.8504 13.9071L21.5113 10.4887L18.0928 18.1495L10.4811 21.5189L13.8504 13.9071Z" stroke="currentColor" stroke-linejoin="round"/><circle cx="16" cy="16" r="13.5" stroke="currentColor"/></svg>

<svg xmlns="http://www.w3.org/2000/svg" fill="none" viewBox="0 0 32 32" width="1em" height="1em"><path stroke="currentColor" stroke-linecap="round" d="M16 2.7v2.8m0 21v2.8M2.7 16h2.8m21 0h2.8"/><path stroke="currentColor" stroke-linejoin="round" d="m13.85 13.907 7.661-3.418-3.418 7.66-7.612 3.37 3.37-7.612Z"/><circle cx="16" cy="16" r="13.5" stroke="currentColor"/></svg>
